material/.icons/material/message-text-lock.svg

<svg xmlns="http://www.w3.org/2000/svg" viewBox="0 0 24 24"><path d="M20.5 0A2.5 2.5 0 0018 2.5V3a1 1 0 00-1 1v4a1 1 0 001 1h5a1 1 0 001-1V4a1 1 0 00-1-1v-.5A2.5 2.5 0 0020.5 0m0 1A1.5 1.5 0 0122 2.5V3h-3v-.5A1.5 1.5 0 0120.5 1M4 2a2 2 0 00-2 2v18l4-4h14a2 2 0 002-2v-5h-5c-1.11 0-2-.89-2-2V2H4m2 4h7v2H6V6m0 3h7v2H6V9m0 3h8v2H6v-2z"/></svg>

<?xml version="1.0" encoding="UTF-8"?><!DOCTYPE svg PUBLIC "-//W3C//DTD SVG 1.1//EN" "http://www.w3.org/Graphics/SVG/1.1/DTD/svg11.dtd"><svg xmlns="http://www.w3.org/2000/svg" xmlns:xlink="http://www.w3.org/1999/xlink" version="1.1" id="mdi-message-text-lock" width="24" height="24" viewBox="0 0 24 24"><path d="M20.5 0A2.5 2.5 0 0 0 18 2.5V3A1 1 0 0 0 17 4V8A1 1 0 0 0 18 9H23A1 1 0 0 0 24 8V4A1 1 0 0 0 23 3V2.5A2.5 2.5 0 0 0 20.5 0M20.5 1A1.5 1.5 0 0 1 22 2.5V3H19V2.5A1.5 1.5 0 0 1 20.5 1M4 2A2 2 0 0 0 2 4V22L6 18H20A2 2 0 0 0 22 16V11H17C15.89 11 15 10.11 15 9V2H4M6 6H13V8H6V6M6 9H13V11H6V9M6 12H14V14H6V12Z" /></svg>
